!!!!SEGMENT: pl-kk--kk-i-281_anonim--salvete-flores.krn
!!!cenid: 17xx:2093
!!!COM: Anonim
!!!COM-rismid: pe30004985
!!!CDT:
!!!CNT:
!!!OTL: Salvete Flores
!!!PDT:
!!!AGN: Sacred
!!!SMS-siglum: PL-Kk
!!!SMS-shelfmark: Kk.I.281
!!!SMS-shelfwork: W
!!!SMS-variant:
!!!SMS-altvar:
!!!NIFC-rismid: 1001147272
!!!URL-scan: http://repozytorium.nifc.pl/skany/pl-kk-nut--i-281
!!!ONB-nifc: UWAGA: na odwrotach stron pozostałości innych utworów
!!!key:
**kern	**text	**kern	**text	**kern	**text	**kern	**text	**kern	**text
*part5	*part5	*part4	*part4	*part3	*part3	*part2	*part2	*part1	*part1
*staff5	*staff5	*staff4	*staff4	*staff3	*staff3	*staff2	*staff2	*staff1	*staff1
*Iempty	*	*Iempty	*	*Itenor	*	*Ialto	*	*Ivox	*
*I"Baſso concer	*	*I"Baſ	*	*I"Tenore	*	*I"Alto.	*	*I"Canto.	*
*I'B (conc)	*	*I'B	*	*I'T	*	*I'A	*	*I'S	*
*clefF4	*	*clefF4	*	*clefC4	*	*clefC3	*	*clefC1	*
*k[f#]	*	*k[f#]	*	*k[f#]	*	*k[f#]	*	*k[f#]	*
*e:	*	*e:	*	*e:	*	*e:	*	*e:	*
*M3/2	*	*M3/2	*	*M3/2	*	*M3/2	*	*M3/2	*
*MM240	*	*MM240	*	*MM240	*	*MM240	*	*MM240	*
=1	=1	=1	=1	=1	=1	=1	=1	=1	=1
*2\right	*	*2\right	*	*	*	*2\right	*	*2\right	*
!	!	!	!	!LO:TX:a:i:t=T.	!	!	!	!LO:TX:i:a:t=T.	!
2E\	Sal-	2E\	Sal-	2G/	Sal-	2e\	Sal-	2b\	Sal-
2Gn\	-ve-	2Gn\	-ve-	2G/	-ve-	2e\	-ve-	2b\	-ve-
2E\	-te	2E\	-te	2G/	-te	2gn\	-te	(4ee\	-te
.	.	.	.	.	.	.	.	4dd\)	.
=2	=2	=2	=2	=2	=2	=2	=2	=2	=2
*	*	*	*	*2\right	*	*	*	*	*
1A\	Flo-	1A\	Flo-	(2A\	Flo-	1f#\	Flo-	1ccn\	Flo-
.	.	.	.	2cn\)	.	.	.	.	.
2A\	-res	2A\	-res	2e\	-res	(4a\	-res	2cc\	-res
.	.	.	.	.	.	4g\)	.	.	.
=3	=3	=3	=3	=3	=3	=3	=3	=3	=3
2.B\	Mar-	2.B\	Mar-	2.d#X\	Mar-	2.f#X\	Mar-	2.b\	Mar-
4BB/	-ty-	4BB/	-ty-	4d#\	-ty-	4f#\	-ty-	4b\	-ty-
2E\	-ru(m)	2E,<\	-ru(m)	2e\	-ru(m)	2g,<\	-ru(m).	2b,<\	-ru(m):
=4	=4	=4	=4	=4	=4	=4	=4	=4	=4
2G\	quos	2G\	quos	2dn\	quos	2g\	quod	2b\	quod
2D\	lu-	2D\	lu	2d\	lu-	2f#X\	lu-	2a\	lu-
!	!	!LO:TX:t=P:problem:defekt źródła	!	!	!	!	!	!	!
!	!	!LO:TX:b:t=cis	!	!	!	!	!	!	!
2G\	-cis	2ryy	.	2d\	-cis	[<2g\	-cis	2b\	-cis
=5	=5	=5	=5	=5	=5	=5	=5	=5	=5
!	!	!LO:TX:b:t=ipſo	!	!	!	!	!	!	!
1En\	i-	1.ryy	.	2d\	ip-	2g\]	.	2b\	ip-
.	.	.	.	2c#X\	-so	2g\	ip-	2g,</	-so
2D/	-pso	.	.	2d\	in	2f#\	-so	2a/	in
=6	=6	=6	=6	=6	=6	=6	=6	=6	=6
!	!	!LO:TX:b:t=in lim-	!	!	!	!	!	!	!
2G\	in	1.ryy	.	2d\	li-	2e\	in	(2b\	li-
2A\	li-	.	.	2.c#X\	.	2.e\	li-	2.a\)	.
2AA/	-mi-	.	.	.	.	.	.	.	.
.	.	.	.	4c#\	-mi-	4e\	-mi-	4a\	-mi-
=7-	=7	=7	=7	=7	=7	=7-	=7	=7-	=7
1.D,<\	-ne	1.ryy	.	1.d\	-ne	1.f#X\	-ne	1.a,<\	-ne
=8	=8	=8	=8	=8	=8	=8	=8	=8	=8
!	!	!LO:LB:g=original	!	!	!	!	!	!	!
2.A\	Chri-	2.A\	X-	2cn\	Chri	2.e\	Chri-	2.ccn\	Chri-
!	!	!	!	!LO:TX:t=P:problem:defekt źródła	!	!	!	!	!
.	.	.	.	1ryy	.	.	.	.	.
4A\	-sti	4A\	-ti	.	.	4e\	-sti	4cc\	-sti
!	!	!	!	!	!	!LO:TX:b:t=inſecut	!	!	!
!	!	!	!	!	!	!LO:TX:t=P:problem:defekt źródła	!	!LO:TX:t=P:problem:defekt źródła	!
4A\	.	4A\	In-	.	.	2ryy	.	4cc\	.
4A\	.	4A\	-ſe-	.	.	.	.	4ryy	.
=9	=9	=9	=9	=9	=9	=9	=9	=9	=9
!LO:TX:b:t=ecutor	!	!	!	!	!	!	!	!	!
!LO:TX:t=P:problem:defekt źródła	!	!	!	!LO:LB:g=original	!	!	!	!LO:TX:t=P:problem:defekt źródła	!
1.ryy	.	(2E\	-cu-	1B\	cu-	1.ryy	.	1.ryy	.
.	.	2G\)	.	.	.	.	.	.	.
.	.	2E\	-tor	4B\	-tor	.	.	.	.
.	.	.	.	4c\	.	.	.	.	.
=10	=10	=10	=10	=10	=10	=10	=10	=10	=10
!LO:LB:g=original	!	!	!	!	!	!	!	!LO:LB:g=original	!
2.B\	suſ-	2.B\	suſ-	2.d#X\	suſ-	1.ryy	.	2.b\	suſ-
4BB/	-tu-	4BB/	-tu-	4d#\	-tu-	.	.	4b\	-tu-
2BB,</	-lit	2BB/	-lit	2d#\	-lit	.	.	2b\	-lit
=11	=11	=11	=11	=11	=11	=11	=11	=11	=11
!	!	!	!	!	!	!LO:LB:g=original	!	!	!
2G\	Ceu	2G\	Ceu	2dn\	céù	2g,<\	céù	2b\	Céù
2A\	tur-	2A\	tur-	2cn\	tur-	2f#\	tur-	2ccn\	tur-
2B\	-bo	2B\	-bo	4B/	-bo	2g\	-bo	2dd\	-bo
.	.	.	.	4A/	.	.	.	.	.
=12	=12	=12	=12	=12	=12	=12	=12	=12	=12
1c\	naſ-	1c\	naſ-	(2G/	na-	(2g\	na-	(2ee\	nas-
.	.	.	.	2A/)	.	2f#\)	.	2ff#X\)	.
2A\	-cen-	2A\	-cen-	2A/	-scen-	2f#\	-scen-	2ff#\	-cen-
=13	=13	=13	=13	=13	=13	=13	=13	=13	=13
2B,<\	-tes	2B,<\	-tes	2F#/	-tes	2f#\	-tes	2dd#X\	-tes
(2B\	ro-	2B\	ro-	1B\	ro-	1f#\	ro-	1dd#\t<	ro-
2BB/)	.	2BB/	.	.	.	.	.	.	.
=14-	=14	=14	=14	=14	=14	=14	=14	=14	=14
1.E,<\	-sas	1.E,<\	-sas	1.G#X/	-sas,	1.e,<\	-ſas.	1.ee\,<	-sas.
=15	=15	=15	=15	=15	=15	=15	=15	=15	=15
2G\	Ceu	2G\	Ceu	2dn\	ceu	2g,<\	Ceu	2b\	céù
2D\	tur-	2D\	tur-	2d\	tur-	2f#\	tur-	2a\	tur-
2G\	-bo	2G\	-bo	2d\	-bo	2g\	-bo	2b\	-bo
=16	=16	=16	=16	=16	=16	=16	=16	=16	=16
1BB/	naſ-	1BB/	naſ-	1d\	naſ-	1g\	naſ-	1b\	naſ-
2C/	-cen-	2C/	-cen-	2c\	-cen-	2e\	-cen-	2g/	-cen-
=17	=17	=17	=17	=17	=17	=17	=17	=17	=17
2GG,</	-tes	2GG/	-tes	2B\	-tes	2d\	-tes	2g,</	-tes
!	!	!LO:TX:t=P:problem:defekt źródła	!	!	!	!	!	!	!
1D\	ro-	1D\	.	1A\	ro-	1d\	ro-	(2g/	ro-
.	.	.	.	.	.	.	.	2f#/)	.
=18-	=18	=18	=18	=18	=18	=18-	=18	=18	=18
!LO:N:vis=0	!	!	!	!LO:N:vis=0.	!	!LO:N:vis=0.	!	!LO:N:vis=0.	!
1.GG/;	-sas.	1.ryy	.	1.Bn\;	sas.	1.d\	-sas.	1.g\;	-sas.
=19||	=19||	=19||	=19||	=19||	=19||	=19||	=19||	=19||	=19||
*M2/2	*	*M2/2	*	*M2/2	*	*M2/2	*	*M2/2	*
*met(c|)	*	*met(c|)	*	*met(c|)	*	*met(c|)	*	*met(c|)	*
!	!	!LO:LB:g=original	!	!LO:LB:g=original	!	!	!	!	!
1E\	Vos	1E\	Vos	1e\	Vos	1g\	Vos	1b\	Vos
=20	=20	=20	=20	=20	=20	=20	=20	=20	=20
!	!	!	!	!	!	!	!	!LO:TX:t=P:problem:niewyraźny zapis	!
2E\	pri-	2E\	pri-	2c\	pri-	2f#X\	pri-	2a\	pri-
2D\	-ma	2D\	-ma	2B\	-ma	2f#\	-ma	2b\	-ma
=21	=21	=21	=21	=21	=21	=21	=21	=21	=21
!	!	!	!	!	!	!	!	!LO:LB:g=original	!
2E\	X-	2E\	X-	2e\	X-	2g\	X-	2b\	Chri-
2BB/	-ti	2BB/	-ti	2d\	-ti	2f#\	-ti	2b\	-sti
=22	=22	=22	=22	=22	=22	=22	=22	=22	=22
!LO:LB:g=original	!	!	!	!LO:TX:t=P:problem:brak kreski taktowej	!	!	!	!	!
1.Cn/	Vi-	1.C/	Vi-	1.c\	Vi-	(1e\	Vi-	[<1b\	Vi-
=23-	=23	=23-	=23	=23-	=23	=23-	=23	=23	=23
.	.	.	.	.	.	4e\	.	4b\]	.
.	.	.	.	.	.	4f#\)	.	8a\L	.
.	.	.	.	.	.	.	.	8g\J	.
!	!	!	!	!	!	!LO:TX:t=P:problem:defekt źródła	!	!	!
2C/	-cti-	2C/	-cti-	2c\	-cti-	2ryy	.	4.a\	.
.	.	.	.	.	.	.	.	8a\	-cti-
=24	=24	=24	=24	=24	=24	=24	=24	=24	=24
!	!	!	!	!	!	!LO:LB:g=original	!	!	!
2BB,</	-ma	2BB,</	-ma	1F#X,</	-ma	2d#X,<\	-ma	2b\	-ma
[<2D\	grex	[<2D\	grex	.	.	[<2f#\	grex	2r	.
=25	=25	=25	=25	=25	=25	=25	=25	=25	=25
!LO:N:xstem:cue	!	!LO:N:xstem:cue	!	!	!	!LO:N:xstem:cue	!	!	!
4D\]	.	4D\]	.	2r	.	4f#\]	.	2r	.
4BB/	im-	4BB/	im-	.	.	4d\	im-	.	.
4C/	-(m)o-	4C/	-(m)o-	[<2B\	grex	4e\	-mo-	[2g/	grex
4D/	-la-	4D/	-la-	.	.	4f#\	-la-	.	.
=26	=26	=26	=26	=26	=26	=26	=26	=26	=26
!	!	!	!	!LO:N:xstem:cue	!	!	!	!LO:N:xstem:cue	!
1E\	-to-	1E\	-to-	4B\]	.	(2.g\	-to-	4g/]	.
.	.	.	.	4G/	im-	.	.	4e/	im-
.	.	.	.	4A/	-mo-	.	.	4f#/	-mo-
.	.	.	.	4B/	-la-	4f#\)	.	4g/	-la-
=27	=27	=27	=27	=27	=27	=27	=27	=27	=27
2AA,</	-rum	2AA,</	-rum	(2.c#X\	-to-	2e,<\	-rum	(<2.a\	-to-
[2C#X/	grex	[2C#X/	grex	.	.	[<2e\	grex	.	.
.	.	.	.	4B\)	.	.	.	4g/)	.
=28	=28	=28	=28	=28	=28	=28	=28	=28	=28
!LO:N:xstem:cue	!	!LO:N:xstem:cue	!	!	!	!LO:N:xstem:cue	!	!	!
4C#/]	.	4C#/]	.	1A\	-rum	4e\]	.	2f#,</	-rum
4AA/	im-	4AA/	im-	.	.	4c#X/	im-	.	.
4BB/	-(m)o-	4BB/	-(m)o-	.	.	4d/	-(m)o-	[<2dd\	grex
4Cny/	-la-	4Cny/	-la-	.	.	4e/	-la-	.	.
=29	=29	=29	=29	=29	=29	=29	=29	=29	=29
!	!	!	!	!	!	!	!	!LO:N:xstem:cue	!
1D\	-to-	1D\	-to-	2r	.	(2.f#\	-to-	4dd\]	.
.	.	.	.	.	.	.	.	4a\	im-
.	.	.	.	[2A/	grex	.	.	4b\	-mo-
.	.	.	.	.	.	4e\)	.	4cc\	-la-
=30	=30	=30	=30	=30	=30	=30	=30	=30	=30
!	!	!	!	!LO:N:xstem:cue	!	!	!	!	!
4D,<\	-rum	4D,<\	-rum	4A/]	.	2d\	-rum	1dd\	-to-
4D\	im-	4D\	im-	4F#/	im-	.	.	.	.
4E\	-(m)o-	4E\	-(m)o-	4G/	-mo-	2r	.	.	.
4F#\	-la-	4F#\	-la-	4A/	-la-	.	.	.	.
=31	=31	=31	=31	=31	=31	=31	=31	=31	=31
!	!	!LO:TX:t=P:problem:defekt źródła	!	!	!	!	!	!	!
(2.G\	-to-	1ryy	.	2.B\	-to-	4r	.	1dd\,<	-ru(m)
.	.	.	.	.	.	4d\	im-	.	.
.	.	.	.	.	.	4e\	-mo-	.	.
4F#\)	.	.	.	8c\L	.	4f#\	-la-	.	.
.	.	.	.	8d\J	.	.	.	.	.
=32-	=32	=32	=32	=32	=32	=32	=32	=32	=32
!	!	!	!	!LO:LB:g=original	!	!	!	!	!
1E,<\	-rum	1ryy	.	1.e\	.	2g\,	-to-	4r	.
.	.	.	.	.	.	.	.	4cc#X\	im-
.	.	.	.	.	.	2g\	-ru(m)	4dd\	-mo-
.	.	.	.	.	.	.	.	4ee\	-la-
=33	=33	=33	=33	=33-	=33	=33	=33	=33	=33
!	!	!LO:LB:g=original	!	!	!	!	!	!	!
0F#\	te-	0F#\	te-	.	.	2.c#X/	te-	4ff#\	-to-
.	.	.	.	.	.	.	.	4a\	.
.	.	.	.	2d\	-rum	.	.	4cc#X\	.
.	.	.	.	.	.	8d/L	.	4b\	.
.	.	.	.	.	.	8e/J	.	.	.
=34-	=34	=34-	=34	=34	=34	=34	=34	=34	=34
!	!	!	!	!	!	!	!	!LO:LB:g=original	!
.	.	.	.	1c#X\	te-	1f#\	.	2b,<\	-rum
.	.	.	.	.	.	.	.	2a#X\	te-
=35	=35	=35	=35	=35-	=35	=35	=35	=35	=35
2BB,</	-ner.	2BB,</	-ner.	2d#X\,<	-ner.	2f#,<\	-ner	2b,<\	-ner
!	!	!LO:TX:t=P:problem:brak kreski taktowej	!	!	!	!	!	!	!
1G\	a-	1G\	a-	1dn\	a-	1g\	a-	1b\	a-
=36-	=36	=36-	=36	=36-	=36	=36-	=36	=36-	=36
4G\	-ram	4G\	-ram	4d\	-ram	4g\	-[ram	4b\	-ram
4G\	sub	4G\	sub	4d\	sub	4g\	sub]	4b\	sub
=37	=37	=37	=37	=37	=37	=37	=37	=37	=37
!LO:LB:g=original	!	!	!	!	!	!LO:LB:g=original	!	!	!
2C/	ip-	2C/	ip-	2e\	ip-	2e\	ip-	2ccn\	ip-
2BB/	-sam	2BB/	-sam	2d\	-sam	2g\	-sam	2dd\	-sam
=38	=38	=38	=38	=38	=38	=38	=38	=38	=38
2.D\	sim-	2.D/	sim-	2.d\	sim-	2.g\	sim-	2.a\	sim-
4D\	-pli-	4D/	-pli-	4d\	-pli-	4f#\	-pli-	4a\	-pli-
=39-	=39	=39	=39	=39-	=39	=39-	=39	=39-	=39
*M3/2	*	*M3/2	*	*M3/2	*	*M3/2	*	*M3/2	*
!LO:TX:a:i:t=Lente	!	!	!	!	!	!	!	!LO:TX:a:t=Lente	!
2GG/	-ces	2GG/	-ces	2d\	-ces	2g\	-ces	2b,<\	-ces
!	!	!LO:TX:a:i:t=Lente	!	!	!	!	!	!	!
2r	.	2r	.	2r	.	2r	.	4b\	pal-
.	.	.	.	.	.	.	.	4b\	-mâ
2r	.	2r	.	2r	.	2r	.	4f#/	et
.	.	.	.	.	.	.	.	4b\	Co-
=40	=40	=40	=40	=40	=40	=40	=40	=40	=40
!LO:N:vis=00	!	!LO:N:vis=00	!	!LO:N:vis=0	!	!	!	!	!
00.r	.	00.r	.	0.r	.	2r	.	(4gn/	-ro-
.	.	.	.	.	.	.	.	4a/	.
.	.	.	.	.	.	4e\	pal-	4b/)	.
.	.	.	.	.	.	4e\	-mâ	4e/	.
.	.	.	.	.	.	4B/	et	(8f#/L	.
.	.	.	.	.	.	.	.	8e/	.
.	.	.	.	.	.	4e/	Co-	8f#/)	.
.	.	.	.	.	.	.	.	8g/J	.
=41	=41	=41	=41	=41	=41	=41	=41	=41	=41
.	.	.	.	.	.	4c#X/	-ro-	1a\	.
.	.	.	.	.	.	(4d/	.	.	.
.	.	.	.	.	.	4e/)	.	.	.
.	.	.	.	.	.	4A/	.	.	.
.	.	.	.	.	.	8B/L	.	4g,</	-nis
.	.	.	.	.	.	(8A/	.	.	.
.	.	.	.	.	.	8B/	.	4g/	Co-
.	.	.	.	.	.	8c#/J)	.	.	.
=42	=42	=42	=42	=42	=42	=42	=42	=42	=42
.	.	.	.	1.r	.	(4d/	.	4f#/	-ro-
.	.	.	.	.	.	4B/	.	4d/	.
.	.	.	.	.	.	4c/)	.	4e/	.
.	.	.	.	.	.	4d/	.	4f#/	.
!	!	!	!	!	!	!	!	!LO:SIC:v:t=custos g	!
.	.	.	.	.	.	2e\	.	2g/	.
=43	=43	=43	=43	=43	=43	=43	=43	=43	=43
!	!	!	!	!	!	!	!	!LO:LB:g=original	!
.	.	.	.	2r	.	2e,<\	-nis	2g/	-nis
.	.	.	.	4B\	pal-	2.e\	lu-	2.f#/	lu-
.	.	.	.	4B\	-ma	.	.	.	.
.	.	.	.	4F#/	et	.	.	.	.
.	.	.	.	4B\	co-	4d#X\	-di-	4f#/	-di-
=44	=44	=44	=44	=44	=44	=44	=44	=44	=44
2r	.	2r	.	4G#X/	-ro-	1.e\	-tis	1.e,</	-tis
.	.	.	.	(4A/	.	.	.	.	.
4E\	pal-	4E\	pal-	4B/)	.	.	.	.	.
4E\	-mâ	4E\	-mâ	4E/	.	.	.	.	.
4BB/	et	4BB/	et	8F#/L	.	.	.	.	.
.	.	.	.	8E/	.	.	.	.	.
4E\	Co-	4E/	Co-	8F#/	.	.	.	.	.
.	.	.	.	8G#/J	.	.	.	.	.
=45	=45	=45	=45	=45	=45	=45	=45	=45	=45
(4C#X/	-ro-	(4C#X/	-ro-	1A\	.	2r	.	1.r	.
4D/)	.	4D/	.	.	.	.	.	.	.
4E/	.	4E/)	.	.	.	4A/	pal-	.	.
4AA/	.	4AA/	.	.	.	4A/	-mâ	.	.
(8BB/L	.	8BB/L	.	4Gn,</	-nis	4E/	et	.	.
8AA/	.	8AA/	.	.	.	.	.	.	.
8BB/	.	8BB/	.	4G/	Co-	4G/	Co-	.	.
8C#/J)	.	8C#/J	.	.	.	.	.	.	.
=46	=46	=46	=46	=46	=46	=46	=46	=46-	=46
!	!	!	!	!LO:LB:g=original	!	!	!	!	!
1D\	.	1D\	.	4F#X/	-ro-	(4A/	-ro-	2r	.
.	.	.	.	(4G/	.	4B/	.	.	.
.	.	.	.	4A/)	.	4c#X/)	.	4a\	pal-
.	.	.	.	4F#/	.	4A/	.	4a\	-mâ
4C#X,</	-nis	4C#X,</	-nis	8G/L	.	4B/	.	4e/	et
.	.	.	.	8F#/	.	.	.	.	.
4C#/	Co-	4C#/	Co-	8G/	.	4c#/	.	4a\	Co-
.	.	.	.	8A/J	.	.	.	.	.
=47	=47	=47	=47	=47	=47	=47	=47	=47	=47
!	!	!	!	!	!	!LO:LB:g=original	!	!	!
(2.BB/	-ro-	2BB/	-ro-	2.B\	.	1.d\	.	2.f#/	-ro-
!	!	!LO:TX:t=P:problem:defekt źródła	!	!	!	!	!	!	!
.	.	1ryy	.	.	.	.	.	.	.
4C#X/)	.	.	.	8A/L	.	.	.	(8g/L	.
.	.	.	.	8G/J	.	.	.	8a/J)	.
2D\	.	.	.	2F#/	.	.	.	2b\	.
=48	=48	=48	=48	=48	=48	=48	=48	=48	=48
!	!	!LO:LB:g=original	!	!	!	!	!	!	!
2E,<\	-nis	2E,<\	-nis	2B,<\	-nis	2d,<\	-nis	2g,</	-nis
2.F#\	lu-	2.F#\	lu-	2.B\	lu-	4f#\	pal-	2.f#/	lu-
.	.	.	.	.	.	4f#\	-mâ	.	.
.	.	.	.	.	.	4c#X\	et	.	.
4FF#/	-di-	4F#\	-di-	4A#X\	-di-	4f#\	Co-	4f#/	-di-
=49	=49	=49	=49	=49	=49	=49	=49	=49	=49
!LO:SIC:v:t=custos E	!	!	!	!	!	!	!	!	!
1.BB/	-tis	1.BB,</	-tis	1.B,<\	-tis	(4d#X\	-ro-	2f#,</	-tis
.	.	.	.	.	.	4e\	.	.	.
.	.	.	.	.	.	4f#\)	.	4b\	pal-
.	.	.	.	.	.	4B\	.	4b\	-mâ
.	.	.	.	.	.	8c#X/L	.	4f#\	et
.	.	.	.	.	.	(8B/	.	.	.
.	.	.	.	.	.	8c#/)	.	4b\	Co-
.	.	.	.	.	.	8d#/J	.	.	.
=50	=50	=50	=50	=50	=50	=50	=50	=50	=50
!LO:LB:g=original	!	!	!	!	!	!	!	!	!
2E\	pal-	2E\	pal-	2r	.	1e\	-nis	(4g#X/	-ro-
.	.	.	.	.	.	.	.	4a/	.
1E\	-mâ	1E\	-ma	4e\	pal-	.	.	4b/)	.
.	.	.	.	4e\	-mâ	.	.	4e/	.
.	.	.	.	4B\	et	4d,<\	.	8f#/L	.
.	.	.	.	.	.	.	.	8e/	.
.	.	.	.	4d\	co-	4d\	Co-	8f#/	.
.	.	.	.	.	.	.	.	8g#/J	.
=51	=51	=51	=51	=51	=51	=51	=51	=51	=51
1AA/	et	1AA/	et	4e\	-ro-	(4c#X/	-ro-	1a\	-nis
.	.	.	.	4d\	.	4d/	.	.	.
.	.	.	.	4c#X\	.	4e/)	.	.	.
.	.	.	.	4e\	.	4A/	.	.	.
2AA/	Co-	2AA/	Co-	8d\L	.	8B/L	.	4gn,</	.
.	.	.	.	8c#\	.	(8A/	.	.	.
.	.	.	.	8d\	.	8B/)	.	4g/	Co-
.	.	.	.	8e\J	.	8c#/J	.	.	.
=52	=52	=52	=52	=52	=52	=52	=52	=52	=52
!	!	!	!	!	!	!	!	!LO:LB:g=original	!
(<1D\	-ro-	1D\	-ro-	(<1f#X\	.	2d\	.	4f#/	-ro-
.	.	.	.	.	.	.	.	4g/	.
.	.	.	.	.	.	2d\	-nis	4a/	.
.	.	.	.	.	.	.	.	4f#/	.
2C#X/)	.	2C#X,</	.	2e\)	.	2r	.	8g/L	.
.	.	.	.	.	.	.	.	(8f#/	.
.	.	.	.	.	.	.	.	8g/	.
.	.	.	.	.	.	.	.	8a/J)	.
=53	=53	=53	=53	=53	=53	=53	=53	=53	=53
!	!	!	!	!	!	!LO:N:vis=0	!	!	!
(1BB/	.	2BB/	.	2d\,	-nis	0.r	.	4b\	.
.	.	.	.	.	.	.	.	4cc\	.
.	.	(2BB/	.	2r	.	.	.	2dd\	.
2C#X/)	.	2C#X/)	.	2r	.	.	.	2cc#X\	.
=54	=54	=54	=54	=54	=54	=54	=54	=54	=54
2D,<\	-nis	2D,<\	-nis	2r	.	.	.	2b,<\	-nis
2.E\	lu-	2.E\	lu-	4e\	pal-	.	.	2.b\	lu-
.	.	.	.	4e\	-mâ	.	.	.	.
.	.	.	.	4B\	et	.	.	.	.
!	!	!	!	!LO:SIC:v:t=custos c#	!	!	!	!	!
4E\	-di-	4E\	-di-	4e\	co-	.	.	4b\	-di-
=55	=55	=55	=55	=55	=55	=55	=55	=55	=55
!	!	!	!	!LO:LB:g=original	!	!	!	!	!
2AA,</	-tis	2AA,</	-tis	(4c#X\	-ro-	1.r	.	1.a,<\	-tis
.	.	.	.	4d\	.	.	.	.	.
4A\	pal-	4A\	pal-	4e\)	.	.	.	.	.
4A\	.	4A\	.	4A/	.	.	.	.	.
4E\	-mâ	4E\	-mâ	(8B/L	.	.	.	.	.
.	.	.	.	8A/	.	.	.	.	.
4A\	.	4A\	.	8B/	.	.	.	.	.
.	.	.	.	8c#/J)	.	.	.	.	.
=56	=56	=56	=56	=56	=56	=56	=56	=56	=56
(4F#\	et	(4F#\	.	1d\	.	2r	.	1.r	.
4G\	.	4G\	.	.	.	.	.	.	.
4A\)	.	4A\)	.	.	.	4A/	pal-	.	.
4D\	co-	4D\	co-	.	.	4A/	-mâ	.	.
(8E\L	-ro-	(8E\L	-ro-	4c#X,<\	-nis	4E/	et	.	.
8D\	.	8D\	.	.	.	.	.	.	.
8E\	.	8E\	.	4c#\	Co-	4A/	Co-	.	.
8F#\J)	.	8F#\J)	.	.	.	.	.	.	.
=57	=57	=57	=57	=57	=57	=57	=57	=57	=57
1G\	.	1G\	.	(4B\	-ro-	4B/	-ro-	2r	.
.	.	.	.	4c\	.	4B,</	-nis	.	.
.	.	.	.	4d\)	.	4B/	et	4b\	pal-
.	.	.	.	4B\	.	4B/	co-	4b\	-mâ
4F#,<\	-nis	4F#,<\	-nis	(8c#X\L	.	4F#/	-ro-	4f#/	et
.	.	.	.	8B\	.	.	.	.	.
4F#\	Co-	4F#\	Co-	8c#\	.	4A/	-nis	4b/	co-
.	.	.	.	8d\J)	.	.	.	.	.
=58	=58	=58	=58	=58	=58	=58	=58	=58	=58
(2.E\	-ro-	(2.E\	-ro-	1e\	.	2.B/	lu-	4gn/	-ro-
.	.	.	.	.	.	.	.	4f#/	.
.	.	.	.	.	.	.	.	4g/	.
4F#\	.	4F#\)	.	.	.	4A/	-di-	4a/	.
2G\)	.	2G\	.	2e\	-nis	2G,</	-tis	2b/	.
=59	=59	=59	=59	=59	=59	=59	=59	=59	=59
!	!	!	!	!	!	!LO:LB:g=original	!	!	!
2A,<\	-nis	2A,<\	-nis	2e\	lu-	2r	.	2f#,</	-nis
2.B\	lu-	2B\	lu-	2.e\	.	4b\	pal-	2.f#/	lu-
.	.	.	.	.	.	4b\	-mâ	.	.
.	.	2BB/	-di	.	.	4f#\	et	.	.
!LO:SIC:v:t=custos E	!	!	!	!	!	!	!	!	!
4BB/	-di	.	.	4d#X\	-di-	4b\	Co-	4f#/	-di-
=60	=60	=60	=60	=60	=60	=60	=60	=60	=60
!LO:PB:g=original	!	!	!	!	!	!	!	!	!
!LO:TX:t=P:problem:defekt źródła	!	!	!	!	!	!	!	!	!
1ryy	.	2E,<\	tis	2e\	-tis	(4g\	-ro-	1.e/	-tis,
.	.	.	.	.	.	4a\)	.	.	.
.	.	4E\	pal-	2r	.	4b\	.	.	.
.	.	4E\	-mâ	.	.	4e\	.	.	.
!	!	!	!	!LO:SIC:v:t=custos A	!	!	!	!	!
4ryy	.	4BB/	et	2r	.	(8f#\L	.	.	.
.	.	.	.	.	.	8e\	.	.	.
4E\	-[m]a	4E/	Co-	.	.	8f#\	.	.	.
.	.	.	.	.	.	8g\J)	.	.	.
=61	=61	=61	=61	=61	=61	=61	=61	=61	=61
!	!	!	!	!LO:PB:g=original	!	!	!	!	!
(4C#X/	et	4C#X/	-ro-	2r	.	(2.a\	.	1.r	.
4D/	co-	(4D/	.	.	.	.	.	.	.
4E/)	.	4E/)	.	4A/	pal-	.	.	.	.
4AA/	-ro-	4AA/	.	4A/	-mâ	4g\)	.	.	.
8BB/L	.	8BB/L	.	4E/	et	2f#\	.	.	.
8AA/	.	8AA/	.	.	.	.	.	.	.
8BB/	.	8BB/	.	4A/	co-	.	.	.	.
8C#/J	.	8C#/J	.	.	.	.	.	.	.
=62	=62	=62	=62	=62	=62	=62	=62	=62	=62
!	!	!	!	!	!	!	!	!LO:TX:b:t=palmâ et	!
!	!	!	!	!	!	!	!	!LO:TX:t=P:problem:defekt źródła	!
!	!	!	!	!	!	!	!	!LO:PB:g=original	!
2D/	-nis	2D/	.	4F#/	-ro-	2f#\	-nis	1ryy	.
.	.	.	.	(4G/	.	.	.	.	.
4D,</	.	4D,</	-nis	4A/)	.	2r	.	.	.
4D/	Co-	4D/	Co-	4F#/	.	.	.	.	.
8E\L	-ro-	(8E\L	-ro-	8G/L	.	2r	.	4ryy	.
8D\	.	8D\	.	8F#/	.	.	.	.	.
8E\	.	8E\	.	8G/	.	.	.	4dd\	co-
8F#\J	.	8F#\J)	.	8A/J	.	.	.	.	.
=63	=63	=63	=63	=63	=63	=63	=63	=63	=63
2G\	.	2G\	.	2B\	.	2.d\	et	(4b\	-ro-
.	.	.	.	.	.	.	.	4cc\	.
2G,<\	-nis	2G,<\	-nis	2B,<\	-nis	.	.	4dd\)	.
.	.	.	.	.	.	4e\	co-	4b\	.
2F#\	Cor-	2F#\	Co-	2A\	Co-	4f#\	-ro-	(8cc#X\L	.
.	.	.	.	.	.	.	.	8b\	.
.	.	.	.	.	.	4a\	-nis	8cc#\	.
.	.	.	.	.	.	.	.	8dd\J)	.
=64	=64	=64	=64	=64	=64	=64	=64	=64	=64
(2.E/	-o-	2.E\	-ro-	2.G#X/	-ro-	2.e\	lu-	1.ee\T<	.
4D/)	.	4D/	.	8A\L	.	4f#\	-di-	.	.
.	.	.	.	8B\J	.	.	.	.	.
2C#X/	.	2C#X/	.	2c#X\	.	2e\	-tis	.	.
=65	=65	=65	=65	=65	=65	=65	=65	=65	=65
!	!	!LO:LB:g=original	!	!	!	!	!	!	!
2D,<\	-nis	2D\	-nis	2B,<\	-nis	2r	.	2dd,<\	-nis
2.F#\	lu-	2.F#\	lu-	2.B\	lu-	4f#\	pal-	2.cc#X\	lu-
.	.	.	.	.	.	4f#\	-mâ	.	.
.	.	.	.	.	.	4c#X\	et	.	.
!	!	!LO:TX:t=P:problem:♯above	!	!	!	!	!	!	!
4F#\	-di-	4F#X\	-di-	4A#X\	-di-	4f#\	co-	4cc#\	-di-
=66	=66	=66	=66	=66	=66	=66	=66	=66	=66
2BB,</	-tis,	2BB,</	-tis,	1.B,<\	-tis	(4d\	-ro-	1.b,<\	-tis:
.	.	.	.	.	.	4e\	.	.	.
4B\	pal-	4B\	pal-	.	.	4f#\)	.	.	.
4B\	-mâ	4B\	-mâ	.	.	4B/	.	.	.
4F#\	et	4F#\	et	.	.	8c#X\L	.	.	.
.	.	.	.	.	.	8B\	.	.	.
4B\	Co-	4B\	Co-	.	.	8c#\	.	.	.
.	.	.	.	.	.	8d\J	.	.	.
=67	=67	=67	=67	=67	=67	=67	=67	=67	=67
(4G#X\	-ro-	(4G#X\	-ro-	2r	.	1.e\	.	1.r	.
4A\	.	4A\	.	.	.	.	.	.	.
4B\)	.	4B\)	.	4e\	pal-	.	.	.	.
4E\	.	4E\	.	4e\	-mâ	.	.	.	.
(8F#\L	.	(8F#\L	.	4B\	et	.	.	.	.
8E\	.	8E\	.	.	.	.	.	.	.
8F#\)	.	8F#\)	.	4e\	co-	.	.	.	.
!LO:SIC:v:t=custos A	!	!	!	!	!	!	!	!	!
8G#\J	.	8G#\J	.	.	.	.	.	.	.
=68	=68	=68	=68	=68	=68	=68	=68	=68	=68
!LO:LB:g=original	!	!	!	!	!	!	!	!	!
2A\	.	2A\	.	(4c#X\	-ro-	1.e,<\	-nis	2r	.
.	.	.	.	4d\	.	.	.	.	.
2A,<\	-nis	2A,<\	-nis	4e\)	.	.	.	4a\	pal-
.	.	.	.	4A\	.	.	.	4a\	-mâ
2A\	Ca-	2A\	Co-	(8B\L	.	.	.	4e/	et
.	.	.	.	8A\	.	.	.	.	.
.	.	.	.	8B\	.	.	.	4a/	co-
.	.	.	.	8c#\J)	.	.	.	.	.
=69	=69	=69	=69	=69	=69	=69	=69	=69	=69
!	!	!	!	!LO:LB:g=original	!	!LO:LB:g=original	!	!	!
(4D\	-ro-	(4D\	-ro-	1d\	.	2r	.	(4f#/	-ro-
4E\	.	4E\	.	.	.	.	.	4g/)	.
4F#\)	.	4F#\	.	.	.	2f#\	et	4a/	.
4D\	.	4D\)	.	.	.	.	.	4d/	.
8E\L	.	(8E\L	.	4c#X,<\	-nis	2e\	Co-	(8g/L	.
8D\	.	8D\	.	.	.	.	.	8f#/	.
8E\	.	8E\	.	4c#\	Co-	.	.	8g/	.
8F#\J	.	8F#\J)	.	.	.	.	.	8a/J)	.
=70	=70	=70	=70	=70	=70	=70	=70	=70	=70
(2.G\	.	(2.G\	.	2.B\	-ro-	(2.d\	-ro-	1b\	.
4F#\)	.	4F#\)	.	(8c\L	.	8e\L	.	.	.
.	.	.	.	8d\J	.	8f#\J)	.	.	.
2E\	.	2E\	.	2e\)	.	2g\	.	2b,<\	-nis.
=71	=71	=71	=71	=71	=71	=71	=71	=71	=71
!	!	!	!	!	!	!	!	!LO:LB:g=original	!
2AA,</	-nis	2AA,</	-nis	2e,<\	-nis	2f#,<\	-nis	2r	.
2.BB/	lu-	2.BB/	lu-	2.e\	lu-	2.f#\	lu-	4b\	pal-
.	.	.	.	.	.	.	.	4b\	-mâ
.	.	.	.	.	.	.	.	4f#\	et
!	!	!LO:SIC:v:t=custos E	!	!	!	!	!	!	!
4BB/	-di-	4BB/	-di-	4d#X\	-di-	4f#\	-di-	4b\	co-
=72	=72	=72	=72	=72	=72	=72	=72	=72	=72
!	!	!LO:TX:t=P:problem:defekt źródła	!	!	!	!	!	!	!
!	!	!LO:LB:g=original	!	!	!	!	!	!	!
2E,<\	-tis	2ryy	.	2e,<\	-tis	1.e,<\	-tis	(4g\	-ro-
.	.	.	.	.	.	.	.	4a\	.
4E\	pal-	4E\	.	4e\	pal-	.	.	4b\)	.
4E\	-mâ	4E\	.	4e\	-mâ	.	.	4e/	.
4E\	et	4E\	-ma	4B\	et	.	.	8f#/L	.
.	.	.	.	.	.	.	.	(8e/	.
4E\	co-	4E\	et	4e\	co-	.	.	8f#/	.
.	.	.	.	.	.	.	.	8g/J)	.
=73	=73	=73	=73	=73	=73	=73	=73	=73	=73
4AA/	-ro-	4AA/	co-	(4cn\	-ro-	2r	.	4a\	.
(4BB/	.	(4BB/	-ro-	4d\)	.	.	.	4b\	.
4Cn/)	.	4Cn/)	.	4e\	.	4e\	pal-	4ccn\	.
4AA/	.	4AA/	.	8d\L	.	4e\	mâ	8b\L	.
.	.	.	.	8c\J	.	.	.	8a\J	.
2E\	.	2E\	.	(8B\L	.	4B/	et	(8g#X/L	.
.	.	.	.	8c\	.	.	.	8a/	.
.	.	.	.	8d\)	.	4e/	Co-	8b/	.
.	.	.	.	8B\J	.	.	.	8g#/J)	.
=74	=74	=74	=74	=74	=74	=74	=74	=74	=74
(4AA/	.	4AA/	.	2cn\	.	4cn/	-ro-	2a\	.
4BB/	.	(4BB/	.	.	.	4d/	.	.	.
4C/)	.	4Cn/)	.	2c\,<	-nis	4e/	.	2a,<\	-nis
8BB/L	.	8BB/L	.	.	.	8d/L	.	.	.
8AA/J	.	8AA/J	.	.	.	8c/J	.	.	.
(8GG#X/L	.	(8GG#X/L	.	2e\	Co-	8B/L	.	2b\	Co-
8AA/	.	8AA/	.	.	.	8c/	.	.	.
8BB/)	.	8BB/)	.	.	.	8d/	.	.	.
8GG#/J	.	8GG#/J	.	.	.	8B/J	.	.	.
=75	=75	=75	=75	=75	=75	=75	=75	=75	=75
2.AA/	.	2.AA/	.	(4A\	-ro-	4c\	.	(2.ccn\	-ro-
.	.	.	.	4B\	.	4d\	.	.	.
.	.	.	.	4c\)	.	4e\	.	.	.
(4BB/	.	4BB/	.	4d\	.	4d\	.	4b\)	.
4C/)	.	(4C/	.	2c\	.	4e\	.	2a\	.
4D/	.	4D/)	.	.	.	4f#\	.	.	.
=76	=76	=76	=76	=76	=76	=76	=76	=76	=76
2E\	-nis	2E,<\	nis	(4B\	-nis	2g,<\	-nis	2g,<\	-nis
.	.	.	.	4e\)	.	.	.	.	.
2B\	lu-	2B\	lu-	2.e\	lu-	2.f#\	lu-	2.b\	fu-
2BB/	-di-	2BB/	-di-	.	.	.	.	.	.
.	.	.	.	4d#X\	-di-	4f#\	-di-	4a\	-di-
=77	=77	=77	=77	=77	=77	=77	=77	=77	=77
!LO:N:vis=0	!	!LO:N:vis=0.	!	!LO:N:vis=0	!	!LO:N:vis=0.	!	!LO:N:vis=0.	!
1.E\;	-tis.	1.E\;	-tis.	1.e\	-tis	1.e\	-tis	1.g#X\;	-tis.
=78||	=78||	=78||	=78||	=78||	=78||	=78||	=78||	=78||	=78||
*M3/2	*	*M3/2	*	*M3/2	*	*M3/2	*	*M3/2	*
!	!	!	!	!	!	!LO:TX:b:t=SU	!	!	!
!	!	!	!	!	!	!LO:PB:g=original	!	!	!
!	!	!	!	!	!	!LO:TX:a:t=P:problem:skan 004	!	!	!
!LO:LB:g=original	!	!LO:LB:g=original	!	!LO:LB:g=original	!	!LO:TX:t=P:problem:defekt źródła	!	!LO:LB:g=original	!
2E\	Je-	2E\	Je-	2G/	Je-	1.ryy	.	2b\	Je-
2Gn\	-su	2Gn\	-su	2G/	-su	.	.	2b\	-su
2E\	Ti-	2E\	Ti-	2G/	Ti-	.	.	4ee\	Ti-
.	.	.	.	.	.	.	.	4dd\	.
=79	=79	=79	=79	=79	=79	=79	=79	=79	=79
1A,<\	-bi	1A,<\	-bi	(2A\	-bi	1f#,<\	-bi	2ccn\	-bi
.	.	.	.	2cn\)	.	.	.	(2a\	sit
2A\	sit	2A\	sit	2e\	sit	(4a\	Sit	2cc\)	.
.	.	.	.	.	.	4g\)	.	.	.
=80	=80	=80	=80	=80	=80	=80	=80	=80	=80
2.B\	glo-	2.B\	glo-	2.d#X\	glo-	2.f#X\	Glo-	2.b\	glo-
4BB/	-ri-	4BB/	-ri-	4d#\	-ri-	4f#\	-ri-	4b\	-ri-
2E\	-a	2E,<\	-a	2e,<\	-a	2g\	-a	2b,<\	-a
=81	=81	=81	=81	=81	=81	=81	=81	=81	=81
2G\	Qui	2G\	Qui	2dn\	Qui	2g\	Qui	2b\	Qui
2D\	na-	2D\	na-	2d\	na-	2f#X\	na-	2a\	na-
2G\	-t(us)	2G\	-t(us)	2d\	-t(us)	2g\	-tus	2b\	-t(us)
=82	=82	=82	=82	=82	=82	=82	=82	=82	=82
1En,<\	es	1En\	es	(2d\	es	1g\	es	2b\	es
.	.	.	.	2c#X\)	.	.	.	(2g/	de
2D\	de	2D/	de	2d\	de	2f#\	de	2a/)	.
=83	=83	=83	=83	=83	=83	=83	=83	=83	=83
2G\	Vir-	2G\	Vir-	1d\	Vir-	1e\	Vir-	2b\	Vir-
2A\	-gi-	2A\	-gi-	.	.	.	.	2.a\	.
!	!	!	!	!LO:TX:t=P:problem:brak kreski taktowej	!	!	!	!	!
2AA/	.	2AA/	.	2c#X\	-gi-	2e\	-gi-	.	.
.	.	.	.	.	.	.	.	4a\	-gi-
=84-	=84	=84	=84	=84	=84	=84-	=84	=84	=84
!	!	!LO:SIC:v:t=custos A	!	!	!	!	!	!	!
1.D\	-ne	1.D,<\	-ne	1.d,<\	-ne	1.f#X,<\	-ne	1.a,<\	-ne
=85	=85	=85	=85	=85	=85	=85	=85	=85	=85
!	!	!LO:LB:g=original	!	!LO:LB:g=original	!	!	!	!	!
2A\	Cum	2A\	Cum	2cn\	Cum	2e\	Cum	2ccn\	Cum
2A\	pa-	2A\	pa-	2c\	Pa-	2e\	Pa-	2cc\	Pa-
4A\	-tre	4A\	-tre	4A/	-tre	4f#,<\	-tre	4cc\	-tre
4A\	et	4A\	et	4A/	et	4f#\	et	4cc\	et
=86	=86	=86	=86	=86	=86	=86	=86	=86	=86
!	!	!	!	!	!	!	!	!LO:LB:g=original	!
(2E\	al-	(2E\	al-	1B\	al-	1g\	al-	1b\	al-
2G\)	.	2Gn\)	.	.	.	.	.	.	.
2E\	-mo	2E\	-mo	(4B\	-mo	2g\	-mo	2b\	-mo
.	.	.	.	4c#X\)	.	.	.	.	.
=87	=87	=87	=87	=87	=87	=87	=87	=87	=87
!LO:LB:g=original	!	!	!	!	!	!	!	!	!
2.B\	Spi-	2.B\	Spi-	2.d#X\	Spi-	2.f#\	Spi-	2.b\	Spi-
4BB/	-ri-	4BB/	-ri-	4d#\	-ri-	4f#\	-ri-	4b\	-ri-
2BB/	-tu	2BB,</	-tu	2d#,<\	-tu	2f#\	-tu	2b,<\	-tu
=88	=88	=88	=88	=88	=88	=88	=88	=88	=88
!	!	!	!	!	!	!LO:LB:g=original	!	!	!
!	!	!	!	!	!	!LO:TX:t=P:problem:defekt źródła	!	!	!
2G\	in	2G\	in	2dn\	in	2ryy	.	2b\	in
2A\	sem-	2A\	sem-	2c\	Sem-	2f#\	Sem-	2ccn\	Sem-
2B\	-pi-	2B\	-pi-	4B\	-pi-	2g\	-pi-	2dd\	-pi-
.	.	.	.	4A\	.	.	.	.	.
=89	=89	=89	=89	=89	=89	=89	=89	=89	=89
1c\	-ter-	1c\	-ter-	(2G/	-ter-	(2g\	-ter-	(<2ee\	-ter-
.	.	.	.	2A/)	.	2f#\)	.	2ff#X\)	.
2A\	-na	2A\	-na	2A/	-na	2f#\	-na	2ff#\	-na
=90	=90	=90	=90	=90	=90	=90	=90	=90	=90
1B\	sae-	1B\	sae-	2F#/	sae-	1f#\	sae-	1dd#X\	Sae-
.	.	.	.	2.B/	.	.	.	.	.
2BB/	-cu-	2BB/	-cu-	.	.	2f#\	-cu-	2dd#\	-cu-
.	.	.	.	4B/	-cu-	.	.	.	.
=91-	=91	=91	=91	=91-	=91	=91	=91	=91	=91
!	!	!LO:SIC:v:t=custos G	!	!	!	!	!	!	!
1.E,<\	-la	1.E,<\	-la	1.G#X/	-la	1.e,<\	-la	1.ee,<\	-la
=92	=92	=92	=92	=92	=92	=92	=92	=92	=92
*	*	*	*	*	*ij	*	*	*	*
!	!	!LO:LB:g=original	!	!	!	!	!	!	!
2G\	in	2G\	in	2d\	in	2g\	in	2b\	in
2D\	sem-	2D\	sem-	2d\	sem-	2f#\	sem-	2a\	sem-
2G\	-pi-	2G\	-pi-	2d\	-pi-	2g\	-pi-	2b\	-pi-
=93	=93	=93	=93	=93	=93	=93	=93	=93	=93
1BB/	-ter-	1BB/	-ter-	1d\	-ter-	1g\	-ter-	1b\	-ter-
2C/	-na	2C/	-na	2c\	-na	2e\	-na	2g/	-na
=94	=94	=94	=94	=94	=94	=94	=94	=94	=94
!	!	!	!	!	!	!	!	!LO:LB:g=original	!
2GG/	sae-	2GG/	sae-	(2B\	se-	1d\	sae-	1g\	sae-
2.D\	.	2.D\	.	2A\)	.	.	.	.	.
.	.	.	.	2A\	-cu-	2d\	-cu-	2f#/	-cu-
4D\	-cu-	4D\	-cu-	.	.	.	.	.	.
=95	=95	=95	=95	=95	=95	=95-	=95	=95	=95
!	!	!LO:N:vis=0.	!	!	!	!	!	!	!
1.GG/;	-la	1.GG/	-la	1.B,<\;	-la	1.d\	-la	1.g\	-la
*	*	*	*	*	*Xij	*	*	*	*
=96||	=96||	=96||	=96||	=96||	=96-	=96||	=96||	=96||	=96||
!LO:LB:g=original	!	!	!	!	!	!	!	!	!
!LO:N:vis=0	!	!LO:N:vis=0.	!	!	!	!LO:N:vis=0	!	!LO:N:vis=0	!
1.AA/	a-	1.AA/	a-	1.c\	a-	1.e\	a-	1.a\	a-
=97	=97	=97-	=97	=97	=97-	=97	=97	=97	=97
!LO:N:vis=0	!	!LO:N:vis=0.	!	!	!	!LO:N:vis=0	!	!LO:N:vis=0	!
1.E\;	-men.	1.E\	-men.	1.B\;;	-men	1.e\;	-men	1.g#X\;	-men
==	==	==	==	==	==	==	==	==	==
*-	*-	*-	*-	*-	*-	*-	*-	*-	*-
!!!system-decoration: [(s1,s2,s3,s4)][(s5)]
!!!RDF**kern: > = above
!!!RDF**kern: < = below
!!!EED: Andrzej Borzym
!!!EST: 2021-03-31
!!!AIN: 1 alto 2 empty 1 tenor 1 vox
!!!ENC: Andrzej Gręziak
!!!END: 2021-03-16
